static/images/icons/gradients/self-hosted.svg

<svg width="40" height="40" viewBox="0 0 40 40" fill="none" xmlns="http://www.w3.org/2000/svg">
<path d="M6 13.7125H2L20 2L38 13.7125H34V33.6C34 34.5017 33.6488 35.3665 33.0237 36.0042C32.3986 36.6418 31.5507 37 30.6667 37H9.33333C8.44928 37 7.60143 36.6418 6.97631 36.0042C6.35119 35.3665 6 34.5017 6 33.6V13.7125Z" fill="url(#paint0_linear_1881_6180)" stroke="#FD366E" stroke-width="1.2" stroke-linecap="round" stroke-linejoin="round"/>
<g filter="url(#filter0_b_1881_6180)">
<path d="M9 34V27H31V34" fill="white" fill-opacity="0.64"/>
<path d="M9 34V27H31V34H9Z" stroke="#FD366E" stroke-width="1.2" stroke-linecap="round" stroke-linejoin="round"/>
</g>
<g filter="url(#filter1_b_1881_6180)">
<path d="M9 24V17H31V24" fill="white" fill-opacity="0.64"/>
<path d="M9 24V17H31V24H9Z" stroke="#FD366E" stroke-width="1.2" stroke-linecap="round" stroke-linejoin="round"/>
</g>
<circle cx="14" cy="20.5" r="1" fill="#FD366E"/>
<circle cx="14" cy="30.5" r="1" fill="#FD366E"/>
<defs>
<filter id="filter0_b_1881_6180" x="4.40039" y="22.3984" width="31.1992" height="16.2031" filterUnits="userSpaceOnUse" color-interpolation-filters="sRGB">
<feFlood flood-opacity="0" result="BackgroundImageFix"/>
<feGaussianBlur in="BackgroundImageFix" stdDeviation="2"/>
<feComposite in2="SourceAlpha" operator="in" result="effect1_backgroundBlur_1881_6180"/>
<feBlend mode="normal" in="SourceGraphic" in2="effect1_backgroundBlur_1881_6180" result="shape"/>
</filter>
<filter id="filter1_b_1881_6180" x="4.40039" y="12.3984" width="31.1992" height="16.2031" filterUnits="userSpaceOnUse" color-interpolation-filters="sRGB">
<feFlood flood-opacity="0" result="BackgroundImageFix"/>
<feGaussianBlur in="BackgroundImageFix" stdDeviation="2"/>
<feComposite in2="SourceAlpha" operator="in" result="effect1_backgroundBlur_1881_6180"/>
<feBlend mode="normal" in="SourceGraphic" in2="effect1_backgroundBlur_1881_6180" result="shape"/>
</filter>
<linearGradient id="paint0_linear_1881_6180" x1="20.002" y1="3.42832" x2="20.002" y2="36.5783" gradientUnits="userSpaceOnUse">
<stop stop-color="#FD366E" stop-opacity="0"/>
<stop offset="1" stop-color="#FD366E" stop-opacity="0.32"/>
</linearGradient>
</defs>
</svg>

<svg xmlns="http://www.w3.org/2000/svg" width="40" height="40" fill="none"><path fill="url(#a)" stroke="#FD366E" stroke-linecap="round" stroke-linejoin="round" stroke-width="1.2" d="M6 13.713H2L20 2l18 11.713h-4V33.6c0 .902-.351 1.767-.976 2.404a3.3 3.3 0 0 1-2.357.996H9.333a3.3 3.3 0 0 1-2.357-.996A3.435 3.435 0 0 1 6 33.6V13.712Z"/><g filter="url(#b)"><path fill="#fff" fill-opacity=".64" d="M9 34v-7h22v7"/><path stroke="#FD366E" stroke-linecap="round" stroke-linejoin="round" stroke-width="1.2" d="M9 34v-7h22v7H9Z"/></g><g filter="url(#c)"><path fill="#fff" fill-opacity=".64" d="M9 24v-7h22v7"/><path stroke="#FD366E" stroke-linecap="round" stroke-linejoin="round" stroke-width="1.2" d="M9 24v-7h22v7H9Z"/></g><circle cx="14" cy="20.5" r="1" fill="#FD366E"/><circle cx="14" cy="30.5" r="1" fill="#FD366E"/><defs><filter id="b" width="31.199" height="16.203" x="4.4" y="22.398" color-interpolation-filters="sRGB" filterUnits="userSpaceOnUse"><feFlood flood-opacity="0" result="BackgroundImageFix"/><feGaussianBlur in="BackgroundImageFix" stdDeviation="2"/><feComposite in2="SourceAlpha" operator="in" result="effect1_backgroundBlur_1881_6180"/><feBlend in="SourceGraphic" in2="effect1_backgroundBlur_1881_6180" result="shape"/></filter><filter id="c" width="31.199" height="16.203" x="4.4" y="12.398" color-interpolation-filters="sRGB" filterUnits="userSpaceOnUse"><feFlood flood-opacity="0" result="BackgroundImageFix"/><feGaussianBlur in="BackgroundImageFix" stdDeviation="2"/><feComposite in2="SourceAlpha" operator="in" result="effect1_backgroundBlur_1881_6180"/><feBlend in="SourceGraphic" in2="effect1_backgroundBlur_1881_6180" result="shape"/></filter><linearGradient id="a" x1="20.002" x2="20.002" y1="3.428" y2="36.578" gradientUnits="userSpaceOnUse"><stop stop-color="#FD366E" stop-opacity="0"/><stop offset="1" stop-color="#FD366E" stop-opacity=".32"/></linearGradient></defs></svg>
